X:1
T:Peter MacLagan
T:Peter MacLagan
T:Alexander Walker
C:Alexander Walker
L:1/8
M:2/2
K:E
V:1 treble 
V:1
 c | B>E E/E/E (BE)Ac | BEGB agfe | B>E E/E/E (BE)Gg | agfe f2 fg | B>E E/E/E (BE)Ac | BEGB c2 cd | %7
 egdf ceBG | AFGE FB,DB, || geBG BEEa | gebg f2 fa | geBG cABA | GBFA GEEf | geBG BEEa | %14
 gebg f2 f(a | g)(ef)(d e)(Bc)(A | G)(EF)(D E2) E || %17

